{
  "type": "map", "orientation": "orthogonal",
  "width": 30, "height": 17, "tilewidth": 32, "tileheight": 32,
  "tilesets": [
    { "firstgid": 1, "name": "atlas", "image": "atlas",
      "imagewidth": 64, "imageheight": 64,
      "tilewidth": 32, "tileheight": 32, "columns": 2, "tilecount": 4 }
  ],
  "layers": [
    { "type": "tilelayer", "name": "world", "width": 30, "height": 17,
      "data": [
        0,0,0,0,0,0,0,0,0,0,0,0,0,0,0,0,0,0,0,0,0,0,0,0,0,0,0,0,0,0,
        0,0,0,0,0,0,0,0,0,0,0,0,0,0,0,0,0,0,0,0,0,0,0,0,0,0,0,0,0,0,
        0,0,0,0,0,0,0,0,0,0,0,0,0,0,0,0,0,0,0,0,0,0,0,0,0,0,0,0,0,0,
        0,0,0,0,0,0,0,0,0,0,0,0,0,0,0,0,0,0,0,0,0,0,0,0,0,0,0,0,0,0,
        0,0,0,0,0,0,0,0,0,0,0,0,0,0,0,0,0,0,0,0,0,0,0,0,0,0,0,0,0,0,
        0,0,0,0,0,0,0,0,0,0,0,0,0,0,0,0,0,0,0,0,0,0,0,0,0,0,0,0,0,0,
        0,0,0,0,0,0,0,0,0,0,0,0,0,4,4,4,4,4,0,0,0,0,0,0,0,0,0,0,0,0,
        0,0,0,0,0,0,0,0,0,0,0,0,0,0,0,0,0,0,0,0,0,0,0,0,0,0,0,0,0,0,
        0,0,0,0,0,0,4,4,4,4,0,0,0,0,0,0,0,0,0,0,4,4,4,4,0,0,0,0,0,0,
        0,0,0,0,0,0,0,0,0,0,0,0,0,0,0,0,0,0,0,0,0,0,0,0,0,0,0,0,0,0,
        0,0,0,0,0,0,0,0,0,0,0,0,0,0,0,0,0,0,0,0,0,0,0,0,0,0,0,0,0,0,
        0,0,0,0,0,0,0,0,0,0,0,0,0,0,0,0,0,0,0,0,0,0,0,0,0,0,0,0,0,0,
        0,0,0,0,0,0,0,0,0,0,0,0,0,0,0,0,0,0,0,0,0,0,0,0,0,0,0,0,0,0,
        0,0,0,0,0,0,0,0,0,0,0,0,0,0,0,0,0,0,0,0,0,0,0,0,0,0,0,0,0,0,
        0,0,0,0,0,0,0,0,0,0,0,0,0,0,0,0,0,0,0,0,0,0,0,0,0,0,0,0,0,0,
        2,2,2,2,2,2,2,2,2,2,0,0,0,0,0,0,0,0,0,0,2,2,2,2,2,2,2,2,2,2,
        3,3,3,3,3,3,3,3,3,3,0,0,0,0,0,0,0,0,0,0,3,3,3,3,3,3,3,3,3,3
      ]
    },
    { "type": "objectgroup", "name": "entities", "objects": [
      { "name": "player",  "type": "spawn",  "x": 64,  "y": 448, "width": 0,   "height": 0 },
      { "name": "patrol1", "type": "enemy",  "x": 224, "y": 448, "width": 0,   "height": 0 },
      { "name": "patrol2", "type": "enemy",  "x": 736, "y": 448, "width": 0,   "height": 0 },
      { "name": "pit",     "type": "hazard", "x": 320, "y": 480, "width": 320, "height": 64 },
      { "name": "exit",    "type": "goal",   "x": 896, "y": 416, "width": 64,  "height": 64 }
    ]}
  ]
}
